src/assets/images/home-investment-robo.svg

<?xml version="1.0" encoding="UTF-8"?>
<svg width="200px" height="315px" viewBox="0 0 200 315" version="1.1" xmlns="http://www.w3.org/2000/svg" xmlns:xlink="http://www.w3.org/1999/xlink">
    <!-- Generator: sketchtool 51.2 (57519) - http://www.bohemiancoding.com/sketch -->
    <title>2D4CA075-A618-4F75-8298-2C4E82DBA202</title>
    <desc>Created with sketchtool.</desc>
    <defs>
        <polygon id="path-1" points="29.4848599 95.2740767 49.3109644 95.2740767 49.3109644 110.461864 29.4848599 110.461864"></polygon>
        <polygon id="path-3" points="29.4848599 44.8740767 49.3109644 44.8740767 49.3109644 60.0618643 29.4848599 60.0618643"></polygon>
    </defs>
    <g id="Symbols" stroke="none" stroke-width="1" fill="none" fill-rule="evenodd">
        <g id="investment_img">
            <g id="Group-30">
                <g id="Group-13">
                    <g id="Group-3">
                        <g id="Rectangle">
                            <g id="Group-14">
                                <rect id="Rectangle" fill="#005150" x="0.4921875" y="0.459375" width="8.203125" height="203.4375"></rect>
                                <path d="M40.6875,137.861719 C31.6266562,137.861719 24.28125,145.207125 24.28125,154.267969 C24.28125,163.328813 31.6266562,170.674219 40.6875,170.674219 C49.7483437,170.674219 57.09375,163.328813 57.09375,154.267969 C57.09375,145.207125 49.7483437,137.861719 40.6875,137.861719 Z" id="Path" fill="#98D5D4"></path>
                                <path d="M40.6875,87.0023437 C31.6266562,87.0023437 24.28125,94.34775 24.28125,103.408594 C24.28125,112.469437 31.6266562,119.814844 40.6875,119.814844 C49.7483437,119.814844 57.09375,112.469437 57.09375,103.408594 C57.09375,94.34775 49.7483437,87.0023437 40.6875,87.0023437 Z" id="Path-Copy" fill="#FF9445"></path>
                                <path d="M40.6875,36.9632812 C31.6266562,36.9632812 24.28125,44.3086875 24.28125,53.3695312 C24.28125,62.430375 31.6266562,69.7757812 40.6875,69.7757812 C49.7483437,69.7757812 57.09375,62.430375 57.09375,53.3695312 C57.09375,44.3086875 49.7483437,36.9632812 40.6875,36.9632812 Z" id="Path-Copy-2" fill="#FF9445"></path>
                                <path d="M196.267969,141.142969 L73.4507812,141.142969 C71.6660536,141.142969 70.21875,141.969475 70.21875,142.988672 L70.21875,146.680078 C70.21875,147.699275 71.6660536,148.525781 73.4507812,148.525781 L196.267969,148.525781 C198.052696,148.525781 199.5,147.699275 199.5,146.680078 L199.5,142.988672 C199.5,141.969475 198.052696,141.142969 196.267969,141.142969 Z M147.353347,156.728906 L72.1965602,156.728906 C71.1041497,156.728906 70.21875,157.555412 70.21875,158.574609 L70.21875,162.266016 C70.21875,163.285213 71.1041497,164.111719 72.1965602,164.111719 L147.353347,164.111719 C148.445757,164.111719 149.331157,163.285213 149.331157,162.266016 L149.331157,158.574609 C149.331157,157.555412 148.445757,156.728906 147.353347,156.728906 Z M196.267969,91.9242187 L73.4507812,91.9242187 C71.6660536,91.9242187 70.21875,92.7507246 70.21875,93.7699219 L70.21875,97.4613281 C70.21875,98.4805254 71.6660536,99.3070312 73.4507812,99.3070312 L196.267969,99.3070312 C198.052696,99.3070312 199.5,98.4805254 199.5,97.4613281 L199.5,93.7699219 C199.5,92.7507246 198.052696,91.9242187 196.267969,91.9242187 Z M72.1965602,114.072656 L147.353347,114.072656 C148.445757,114.072656 149.331157,113.24615 149.331157,112.226953 L149.331157,108.535547 C149.331157,107.51635 148.445757,106.689844 147.353347,106.689844 L72.1965602,106.689844 C71.1041497,106.689844 70.21875,107.51635 70.21875,108.535547 L70.21875,112.226953 C70.21875,113.24615 71.1041497,114.072656 72.1965602,114.072656 Z M196.267969,41.8851562 L73.4507812,41.8851562 C71.6660536,41.8851562 70.21875,42.7116621 70.21875,43.7308594 L70.21875,47.4222656 C70.21875,48.4414629 71.6660536,49.2679687 73.4507812,49.2679687 L196.267969,49.2679687 C198.052696,49.2679687 199.5,48.4414629 199.5,47.4222656 L199.5,43.7308594 C199.5,42.7116621 198.052696,41.8851562 196.267969,41.8851562 Z M70.21875,63.0082031 L70.21875,59.3167969 C70.21875,58.2975996 71.1041497,57.4710937 72.1965602,57.4710937 L147.353347,57.4710937 C148.445757,57.4710937 149.331157,58.2975996 149.331157,59.3167969 L149.331157,63.0082031 C149.331157,64.0274004 148.445757,64.8539062 147.353347,64.8539062 L72.1965602,64.8539062 C71.1041497,64.8539062 70.21875,64.0274004 70.21875,63.0082031 Z" id="Fill-10" fill-opacity="0.248358243" fill="#007F7E"></path>
                                <mask id="mask-2" fill="white">
                                    <use xlink:href="#path-1"></use>
                                </mask>
                                <g id="Clip-2"></g>
                                <polygon id="Fill-1" fill="#FFFFFF" mask="url(#mask-2)" points="35.7362069 107.289418 30.9854661 102.530039 29.4 104.11272 35.7362069 110.461864 49.3109644 96.8624254 47.7311557 95.2740767"></polygon>
                                <mask id="mask-4" fill="white">
                                    <use xlink:href="#path-3"></use>
                                </mask>
                                <g id="Clip-2"></g>
                                <polygon id="Fill-1" fill="#FFFFFF" mask="url(#mask-4)" points="35.7362069 56.8894176 30.9854661 52.1300391 29.4 53.7127202 35.7362069 60.0618643 49.3109644 46.4624254 47.7311557 44.8740767"></polygon>
                            </g>
                        </g>
                    </g>
                </g>
                <g id="Group-5" transform="translate(60.900000, 93.450000)">
                    <path d="M4.38529894,184.069516 L8.21643205,194.487957 C8.53415379,195.944475 8.58895463,197.689638 7.12472536,198.551776 C7.12472536,198.551776 6.1586296,199.132231 5.11679784,199.5 C4.42039611,199.348082 0,185.279167 0,185.279167 L0.042486047,185.19308 C1.79611303,182.844041 4.38529894,184.069516 4.38529894,184.069516" id="Fill-49" fill="#006769"></path>
                    <path d="M9.90685064,181.65 L5.33031152,184.036699 C5.0676199,185.053779 5.46099397,186.121221 6.33994952,186.780235 L6.49915656,186.9 L11.55,185.698052 L9.90685064,181.65 Z" id="Fill-51" fill="#FAB08A"></path>
                    <path d="M44.3448302,114.45 C44.3448302,114.45 40.0113279,119.214999 38.894374,127.596899 C38.1512164,133.175781 40.1975925,142.016015 40.4206031,148.953094 C40.6252408,155.295436 37.8205018,160.335178 32.8933604,164.211305 L9.45,181.589233 L11.0186771,185.85 C11.0186771,185.85 43.1062342,180.940842 51.5305879,166.277366 C59.9530411,151.613245 61.95,118.419863 61.95,118.419863 L44.3448302,114.45 Z" id="Fill-53" fill="#1C2C57"></path>
                    <path d="M25.4521681,96.6 L13.3420909,123.740687 C13.3420909,123.740687 8.36494594,124.323135 6.20915878,126.237806 C5.08099743,127.239209 5.1325378,129.23882 5.43796219,130.923578 C5.66893938,132.197683 7.19669764,132.739258 8.17214679,131.889854 C9.5026518,130.729428 11.2200277,129.424029 12.3462801,129.234988 C15.3337125,128.735565 16.2270788,126.612055 16.2270788,126.612055 L33.6,99.263807 L25.4521681,96.6 Z" id="Fill-55" fill="#FAB08A"></path>
                    <path d="M86.8854937,41.2907292 L93.1463314,35.9842318 L88.2914858,9.76804719 L80.7594772,5.95141671 C80.7594772,5.95141671 81.5799603,4.50864512 83.4385662,5.12215717 C85.2952461,5.73757849 86.8700856,5.37099867 86.8700856,5.37099867 C86.8700856,5.37099867 88.2792877,3.64374586 85.6079028,2.47272701 C84.1068939,1.4722696 83.1034393,2.46827205 78.75,2.30089272 C78.75,1.63710323 84.4863192,0.062592011 84.4863192,0.062592011 C86.2743045,-0.507006834 90.8389636,2.99841265 90.8389636,2.99841265 C91.1452002,3.41208779 91.344864,3.89640591 91.4193366,4.40490812 L92.1422348,9.27036417 C92.1422348,9.27036417 101.85,35.6558374 101.85,38.4732833 C101.85,41.2907292 96.4096454,45.15 96.4096454,45.15 L86.8854937,41.2907292 Z" id="Fill-57" fill="#FAB08A"></path>
                    <path d="M53.6696649,117.159606 C53.6696649,117.159606 49.9197101,121.705627 52.1680209,132.277185 C53.6044594,139.024139 59.9134098,147.516395 64.1485701,153.364313 C67.1857393,157.55574 67.2503056,162.829613 66.3367895,167.937451 C62.8687526,187.350712 68.4182509,211.05 68.4182509,211.05 L72.918708,211.05 C72.918708,211.05 79.6700329,176.320304 81.6690285,151.906678 C83.4736863,129.896059 74.116699,113.685735 73.919804,113.4 L53.6696649,117.159606 Z" id="Fill-59" fill="#004060"></path>
                    <polygon id="Fill-61" fill="#F68B27" points="94.5 3.35322581 93.8761293 7.35 92.4 7.14745846 93.0260598 3.15"></polygon>
                    <path d="M93.45,7.29507444 C94.4348496,7.45425764 95.2645808,7.37782166 95.5012123,5.52512555 C95.7585264,3.50202628 94.9610354,3.32320815 93.9780108,3.15 L93.45,7.29507444 Z" id="Fill-63" fill="#F68B27"></path>
                    <polygon id="Fill-65" fill="#FFFFFF" points="78.2272445 5.25 75.6 3.39564138 75.7909833 1.86640692 78.75 1.05"></polygon>
                    <polygon id="Fill-67" fill="#004060" points="75.4495868 3.15 74.55 2.48572437 75.6 2.1"></polygon>
                    <polygon id="Fill-69" fill="#F68B27" points="79.2966731 1.05 79.1526433 2.11410482 79.0969518 2.52337591 79.0975919 2.52337591 78.9516417 3.60412905 78.8332172 4.47747192 78.75 5.10039639 92.9007664 7.35 93.45 3.29821625"></polygon>
                    <path d="M42.6906622,63.940567 C34.6584861,69.8498812 25.2,98.2548797 25.2,98.2548797 L32.2549014,102.216806 L43.7324498,86.446484 C43.7324498,86.446484 44.8540801,104.703323 42.1062136,118.710444 C43.3549535,123.962954 49.3124967,123.371383 58.9728252,121.537833 C68.6293213,119.703004 74.9586121,115.534507 74.9586121,115.534507 C74.9586121,115.534507 75.3750717,90.2018404 76.6238116,76.7703019 C77.8731902,63.3355658 75.4070088,61.9017258 78.7872295,62.3455639 C86.3346007,58.0549158 98.7,44.2370975 98.7,44.2370975 L87.2141479,42 L62.4827105,56.5085173 C62.4827105,56.5085173 50.3913314,59.7004423 42.6906622,63.940567" id="Fill-71" fill="#006769"></path>
                    <path d="M56.7,30.45 L62.9348059,36.4238737 C65.5833135,38.9607952 66.6999852,42.638619 65.8916831,46.1623368 L65.1608071,49.35 L56.7,30.45 Z" id="Fill-73" fill="#FAB08A"></path>
                    <path d="M49.5035124,28.35 C35.051343,28.35 41.199074,56.3964983 41.199074,56.3964983 C41.199074,56.3964983 43.7724687,74.5898138 49.5035124,81.8954815 C54.4629836,88.2175701 64.2767985,86.3167567 68.9266214,83.2803507 C71.1980133,81.7982186 73.7459226,80.8088424 76.430179,80.4796944 C80.367046,80.0017535 85.05,78.2439359 85.05,71.0632285 C85.05,64.3031348 77.0698642,59.076059 71.8153987,55.3420654 C68.3920638,52.9092046 66.004713,49.2705415 65.0063199,45.161667 C63.3242793,38.2398979 59.2230311,28.35 49.5035124,28.35" id="Fill-75" fill="#1C2C57"></path>
                    <path d="M69.3475816,216.315958 L80.4426391,216.3 C81.9141623,216.514769 83.5615873,217.105218 83.8364734,218.903161 C83.8364734,218.903161 84.0300285,220.096692 83.995983,221.283574 C83.6031985,221.930541 68.8936412,221.195805 68.8936412,221.195805 L68.8299635,221.122663 C67.2714351,218.482267 69.3475816,216.315958 69.3475816,216.315958" id="Fill-77" fill="#006769"></path>
                    <polygon id="Fill-79" fill="#004060" points="83.9757096 220.611236 68.25 220.5 68.3865512 221.55 84 221.55"></polygon>
                    <path d="M68.25,211.05 L68.9712784,215.835715 C69.814858,216.421085 70.9090057,216.454115 71.7853977,215.928078 L71.9440909,215.830822 L72.45,211.05 L68.25,211.05 Z" id="Fill-81" fill="#FAB08A"></path>
                    <path d="M83.4861736,5.38588751 C81.65734,4.83714258 80.85,6.12760396 80.85,6.12760396 L85.7818493,8.4 C85.8500752,8.37324584 85.916406,8.34364549 85.9846319,8.31689133 C86.7951305,8.0203186 88.4786681,7.36455701 89.25,7.24672485 C88.7818944,6.82548911 84.3996428,5.66025998 83.4861736,5.38588751" id="Fill-83" fill="#FAB08A"></path>
                </g>
            </g>
        </g>
    </g>
</svg>

<?xml version="1.0" encoding="UTF-8"?>
<svg version="1.1" viewBox="0 0 200 315" xmlns="http://www.w3.org/2000/svg" xmlns:xlink="http://www.w3.org/1999/xlink" width="200px" height="315px">
<title>2D4CA075-A618-4F75-8298-2C4E82DBA202</title>
<desc>Created with sketchtool.</desc>
<defs>
<polygon id="b" points="29.485 95.274 49.311 95.274 49.311 110.46 29.485 110.46"/>
<polygon id="a" points="29.485 44.874 49.311 44.874 49.311 60.062 29.485 60.062"/>
</defs>
<g fill="none" fill-rule="evenodd">
<rect x=".49219" y=".45938" width="8.2031" height="203.44" fill="#005150"/>
<path d="m40.688 137.86c-9.0608 0-16.406 7.3454-16.406 16.406s7.3454 16.406 16.406 16.406c9.0608 0 16.406-7.3454 16.406-16.406s-7.3454-16.406-16.406-16.406z" fill="#98D5D4"/>
<path d="m40.688 87.002c-9.0608 0-16.406 7.3454-16.406 16.406 0 9.0608 7.3454 16.406 16.406 16.406 9.0608 0 16.406-7.3454 16.406-16.406 0-9.0608-7.3454-16.406-16.406-16.406z" fill="#FF9445"/>
<path d="m40.688 36.963c-9.0608 0-16.406 7.3454-16.406 16.406 0 9.0608 7.3454 16.406 16.406 16.406 9.0608 0 16.406-7.3454 16.406-16.406 0-9.0608-7.3454-16.406-16.406-16.406z" fill="#FF9445"/>
<path d="m196.27 141.14h-122.82c-1.7847 0-3.232 0.82651-3.232 1.8457v3.6914c0 1.0192 1.4473 1.8457 3.232 1.8457h122.82c1.7847 0 3.232-0.82651 3.232-1.8457v-3.6914c0-1.0192-1.4473-1.8457-3.232-1.8457zm-48.915 15.586h-75.157c-1.0924 0-1.9778 0.82651-1.9778 1.8457v3.6914c0 1.0192 0.8854 1.8457 1.9778 1.8457h75.157c1.0924 0 1.9778-0.82651 1.9778-1.8457v-3.6914c0-1.0192-0.8854-1.8457-1.9778-1.8457zm48.915-64.805h-122.82c-1.7847 0-3.232 0.82651-3.232 1.8457v3.6914c0 1.0192 1.4473 1.8457 3.232 1.8457h122.82c1.7847 0 3.232-0.82651 3.232-1.8457v-3.6914c0-1.0192-1.4473-1.8457-3.232-1.8457zm-124.07 22.148h75.157c1.0924 0 1.9778-0.82651 1.9778-1.8457v-3.6914c0-1.0192-0.8854-1.8457-1.9778-1.8457h-75.157c-1.0924 0-1.9778 0.82651-1.9778 1.8457v3.6914c0 1.0192 0.8854 1.8457 1.9778 1.8457zm124.07-72.187h-122.82c-1.7847 0-3.232 0.82651-3.232 1.8457v3.6914c0 1.0192 1.4473 1.8457 3.232 1.8457h122.82c1.7847 0 3.232-0.82651 3.232-1.8457v-3.6914c0-1.0192-1.4473-1.8457-3.232-1.8457zm-126.05 21.123v-3.6914c0-1.0192 0.8854-1.8457 1.9778-1.8457h75.157c1.0924 0 1.9778 0.82651 1.9778 1.8457v3.6914c0 1.0192-0.8854 1.8457-1.9778 1.8457h-75.157c-1.0924 0-1.9778-0.82651-1.9778-1.8457z" fill="#007F7E" fill-opacity=".24836"/>
<mask id="d" fill="white">
<use xlink:href="#b"/>
</mask>
<polygon points="35.736 107.29 30.985 102.53 29.4 104.11 35.736 110.46 49.311 96.862 47.731 95.274" fill="#fff" mask="url(#d)"/>
<mask id="c" fill="white">
<use xlink:href="#a"/>
</mask>
<polygon points="35.736 56.889 30.985 52.13 29.4 53.713 35.736 60.062 49.311 46.462 47.731 44.874" fill="#fff" mask="url(#c)"/>
<g transform="translate(60.9 93.45)">
<path d="m4.3853 184.07 3.8311 10.418c0.31772 1.4565 0.37252 3.2017-1.0917 4.0638 0 0-0.9661 0.58046-2.0079 0.94822-0.6964-0.15192-5.1168-14.221-5.1168-14.221l0.042486-0.086087c1.7536-2.349 4.3428-1.1236 4.3428-1.1236" fill="#006769"/>
<path d="m9.9069 181.65-4.5765 2.3867c-0.26269 1.0171 0.13068 2.0845 1.0096 2.7435l0.15921 0.11976 5.0508-1.2019-1.6431-4.0481z" fill="#FAB08A"/>
<path d="m44.345 114.45s-4.3335 4.765-5.4505 13.147c-0.74316 5.5789 1.3032 14.419 1.5262 21.356 0.20464 6.3423-2.6001 11.382-7.5272 15.258l-23.443 17.378 1.5687 4.2608s32.088-4.9092 40.512-19.573c8.4225-14.664 10.419-47.858 10.419-47.858l-17.605-3.9699z" fill="#1C2C57"/>
<path d="m25.452 96.6-12.11 27.141s-4.9771 0.58245-7.1329 2.4971c-1.1282 1.0014-1.0766 3.001-0.7712 4.6858 0.23098 1.2741 1.7587 1.8157 2.7342 0.96628 1.3305-1.1604 3.0479-2.4658 4.1741-2.6549 2.9874-0.49942 3.8808-2.6229 3.8808-2.6229l17.373-27.348-8.1478-2.6638z" fill="#FAB08A"/>
<path d="m86.885 41.291 6.2608-5.3065-4.8548-26.216-7.532-3.8166s0.82048-1.4428 2.6791-0.82926c1.8567 0.61542 3.4315 0.24884 3.4315 0.24884s1.4092-1.7273-1.2622-2.8983c-1.501-1.0005-2.5045-0.004455-6.8579-0.17183 0-0.66379 5.7363-2.2383 5.7363-2.2383 1.788-0.5696 6.3526 2.9358 6.3526 2.9358 0.30624 0.41368 0.5059 0.89799 0.58037 1.4065l0.7229 4.8655s9.7078 26.385 9.7078 29.203-5.4404 6.6767-5.4404 6.6767l-9.5242-3.8593z" fill="#FAB08A"/>
<path d="m53.67 117.16s-3.75 4.546-1.5016 15.118c1.4364 6.747 7.7454 15.239 11.981 21.087 3.0372 4.1914 3.1017 9.4653 2.1882 14.573-3.468 19.413 2.0815 43.113 2.0815 43.113h4.5005s6.7513-34.73 8.7503-59.143c1.8047-22.011-7.5523-38.221-7.7492-38.507l-20.25 3.7596z" fill="#004060"/>
<polygon points="94.5 3.3532 93.876 7.35 92.4 7.1475 93.026 3.15" fill="#F68B27"/>
<path d="m93.45 7.2951c0.98485 0.15918 1.8146 0.082747 2.0512-1.7699 0.25731-2.0231-0.54018-2.2019-1.5232-2.3751l-0.52801 4.1451z" fill="#F68B27"/>
<polygon points="78.227 5.25 75.6 3.3956 75.791 1.8664 78.75 1.05" fill="#fff"/>
<polygon points="75.45 3.15 74.55 2.4857 75.6 2.1" fill="#004060"/>
<polygon points="79.297 1.05 79.153 2.1141 79.097 2.5234 79.098 2.5234 78.952 3.6041 78.833 4.4775 78.75 5.1004 92.901 7.35 93.45 3.2982" fill="#F68B27"/>
<path d="m42.691 63.941c-8.0322 5.9093-17.491 34.314-17.491 34.314l7.0549 3.9619 11.478-15.77s1.1216 18.257-1.6262 32.264c1.2487 5.2525 7.2063 4.6609 16.867 2.8274 9.6565-1.8348 15.986-6.0033 15.986-6.0033s0.41646-25.333 1.6652-38.764c1.2494-13.435-1.2168-14.869 2.1634-14.425 7.5474-4.2906 19.913-18.108 19.913-18.108l-11.486-2.2371-24.731 14.509s-12.091 3.1919-19.792 7.432" fill="#006769"/>
<path d="m56.7 30.45 6.2348 5.9739c2.6485 2.5369 3.7652 6.2147 2.9569 9.7385l-0.73088 3.1877-8.4608-18.9z" fill="#FAB08A"/>
<path d="m49.504 28.35c-14.452 0-8.3044 28.046-8.3044 28.046s2.5734 18.193 8.3044 25.499c4.9595 6.3221 14.773 4.4213 19.423 1.3849 2.2714-1.4821 4.8193-2.4715 7.5036-2.8007 3.9369-0.47794 8.6198-2.2358 8.6198-9.4165 0-6.7601-7.9801-11.987-13.235-15.721-3.4233-2.4329-5.8107-6.0715-6.8091-10.18-1.682-6.9218-5.7833-16.812-15.503-16.812" fill="#1C2C57"/>
<path d="m69.348 216.32 11.095-0.015958c1.4715 0.21477 3.1189 0.80522 3.3938 2.6032 0 0 0.19356 1.1935 0.15951 2.3804-0.39278 0.64697-15.102-0.087769-15.102-0.087769l-0.063678-0.073142c-1.5585-2.6404 0.51762-4.8067 0.51762-4.8067" fill="#006769"/>
<polygon points="83.976 220.61 68.25 220.5 68.387 221.55 84 221.55" fill="#004060"/>
<path d="m68.25 211.05 0.72128 4.7857c0.84358 0.58537 1.9377 0.6184 2.8141 0.092363l0.15869-0.097256 0.50591-4.7808h-4.2z" fill="#FAB08A"/>
<path d="m83.486 5.3859c-1.8288-0.54874-2.6362 0.74172-2.6362 0.74172l4.9318 2.2724c0.068226-0.026754 0.13456-0.056355 0.20278-0.083109 0.8105-0.29657 2.494-0.95233 3.2654-1.0702-0.46811-0.42124-4.8504-1.5865-5.7638-1.8608" fill="#FAB08A"/>
</g>
</g>
</svg>
